T: Mr And Mrs Alex Ross
M: 6/8
L: 1/8
K: Dmaj
A/d/ | f3 f>dd | c>BB B>ef | g3 g>ee | c<ec B>AA |
f3 f>dd | c>BB B>ef | g>ec A>aa | d3 d2  :|
f/g/ | a3 f2 d | c>BB B>ef | g3 g2 e | c<ec B>AA |
a3 f2 d | c>BB B>ef | g>ec A>aa | d3 d2  :|
f | A>dd d3 | d>cc c>BB | B>gg g>ee | c<ec B>AA |
A>dd d3 | d>cc c>BB | g>ec A>aa | d3 d2  :|
f/g/ | a>fa f<da | c>BB B>ef | g>eg g2 e | c<ec B>AA |
a>fa f<da | c>BB B>ef | g>ec A>aa | d3 d2  :|
